static/assets/img/icons/theme/home/lamp-2.svg

<svg height="24" viewBox="0 0 24 24" width="24" xmlns="http://www.w3.org/2000/svg"><g fill="none" fill-rule="evenodd"><path d="m0 0h24v24h-24z" opacity="0"/><g fill="#000"><path d="m12 2c.5522847 0 1 .44771525 1 1v8c0 .5522847-.4477153 1-1 1s-1-.4477153-1-1v-8c0-.55228475.4477153-1 1-1z" opacity=".3"/><path d="m8.12601749 19h7.74796501c-.4440428 1.7252272-2.0101431 3-3.8739825 3s-3.42993972-1.2747728-3.87398251-3z" opacity=".3"/><path d="m12 8c4.9705627 0 9 4.0294373 9 9h-18c0-4.9705627 4.02943725-9 9-9z"/></g></g></svg>

<svg width="24px" height="24px" viewBox="0 0 24 24" version="1.1" xmlns="http://www.w3.org/2000/svg" xmlns:xlink="http://www.w3.org/1999/xlink">
    <title>Icon For Lamp#2</title>
    <g stroke="none" stroke-width="1" fill="none" fill-rule="evenodd">
        <rect opacity="0" x="0" y="0" width="24" height="24"></rect>
        <path d="M12,2 C12.5522847,2 13,2.44771525 13,3 L13,11 C13,11.5522847 12.5522847,12 12,12 C11.4477153,12 11,11.5522847 11,11 L11,3 C11,2.44771525 11.4477153,2 12,2 Z" fill="#000000" opacity="0.3"></path>
        <path d="M8.12601749,19 L15.8739825,19 C15.4299397,20.7252272 13.8638394,22 12,22 C10.1361606,22 8.57006028,20.7252272 8.12601749,19 Z" fill="#000000" opacity="0.3"></path>
        <path d="M12,8 L12,8 C16.9705627,8 21,12.0294373 21,17 L3,17 L3,17 C3,12.0294373 7.02943725,8 12,8 Z" fill="#000000"></path>
    </g>
</svg>
